!!!COM: Bach, Johann Sebastian
!!!CDT: 1685/3//-1750/7/28/
!!!OTL@@DE: Freu' dich sehr, O meine Seele
!!!OTL@EN:  Rejoice greatly, O my soul
!!!OPR@@DE: Cantata: Brich dem Hungrigen dein Brot, BWV 39
!!!ONB: Chorale is at the conclusion to Part II of the Cantata
!!!AGN: 4-Part Chorale
!!!SCT: BH 067
!!!SCT: BWV 39
!!!ONB: Harmony and Root analysis done manually by Craig Sapp (not yet proofed)
**harm	**root	**kern	**kern	**kern	**kern
!	!	!bass	!tenor	!alto	!sprno
*	*Iorgan	*Iorgan	*Iorgan	*Iorgan	*Iorgan
*	*	*clefF4	*clefF4	*clefG2	*clefG2
*k[f#c#g#d#a#]	*k[f#c#g#d#a#]	*k[f#c#g#d#a#]	*k[f#c#g#d#a#]	*k[f#c#g#d#a#]	*k[f#c#g#d#a#]
*B:	*B:	*B:	*B:	*B:	*B:
*M4/4	*M4/4	*M4/4	*M4/4	*M4/4	*M4/4
*met(c)	*met(c)	*met(c)	*met(c)	*met(c)	*met(c)
*MM60	*MM60	*MM60	*MM60	*MM60	*MM60
*>[A,A,B]	*>[A,A,B]	*>[A,A,B]	*>[A,A,B]	*>[A,A,B]	*>[A,A,B]
*>A	*>A	*>A	*>A	*>A	*>A
I	4GG	4B	4d#	4f#	4b
Vb	4DD	4A#	4c#	4f#	4cc#
I	4GG	4B	4B	4f#	4dd#
V	4DD	4F#	4A#	4f#	4cc#
=2	=2	=2	=2	=2	=2
vi7	8EE	4G#	4B	8f#	4b
viio7b/V	8CC#	.	.	8e#	.
V	4DD	8A#	4c#	4f#	4a#
.	.	8B	.	.	.
ii	8AA	8c#	8c#	4e#	4g#
ii7	8AA	8C#	8B	.	.
V;	4DD;	4F#;	4A#;	4c#;	4f#;
=3	=3	=3	=3	=3	=3
vi	4EE	4G#	4d#	4g#	4b
Vb	4DD	4A#	4c#	4f#	4cc#
I	4GG	4B	8B	4f#	4dd#
.	.	.	8A#	.	.
IVb	4CC	4G#	4B	4e	4ee
=4	=4	=4	=4	=4	=4
Ic	4GG	8F#	4B	4f#	4dd#
.	.	8E	.	.	.
V	4DD	4F#	4A#	8f#	4cc#
.	.	.	.	8e	.
I;	2GG;	2BB;	2F#;	2d#;	2b;
=5:|!	=5:|!	=5:|!	=5:|!	=5:|!	=5:|!
I	4GG	4BB	4f#	4b	4dd#
viiob	4FF#	4C#	4e	8a#	4ee
.	.	.	.	8g#	.
iii	8BB	4D#	8A#	8f#	4ff#
Vc/II	8EE	.	8B#	16g#	.
.	.	.	.	16a	.
iib	4AA	8E	4c#	4g#	4ee
.	.	8F#	.	.	.
=6	=6	=6	=6	=6	=6
vi	4EE	8G#	4B	4g#	4dd#
.	.	8F#	.	.	.
ii	4AA	4E	4e	4g#	4cc#
V/VI;	2BB;	2D#;	2A#;	2f##;	2dd#;
!!linebreak: 2
=7	=7	=7	=7	=7	=7
I	4GG	4D#	8B	4f#	4ff#
.	.	.	8c#	.	.
I	4GG	4BB	4d#	4b	4ff#
IV	4CC	4E	8e	4b	4gg#
.	.	.	8d#	.	.
V	4DD	4F#	4c#	4a#	4ff#
=8	=8	=8	=8	=8	=8
IVb	4CC	8G#	8B	4g#	4ee
.	.	8A#	8c#	.	.
I	4GG	4B	8d#	8f#	4dd#
.	.	.	8e#	8g#	.
V;	2DD;	2F#;	2f#;	2a#;	2cc#;
=9	=9	=9	=9	=9	=9
I	4GG	4B	8f#	4b	8dd#
.	.	.	8e	.	8ee
I	4GG	4BB	4d#	4b	4ff#
ii7	4AA	4C#	4c#	8b	4ee
.	.	.	.	8a#	.
Ib	4GG	4D#	4F#	8b	8dd#
.	.	.	.	8a#	8cc#
=10	=10	=10	=10	=10	=10
IV	4CC	8E	4G#	8g#	4b
.	.	8D#	.	8f#	.
viiob	4FF#	4C#	4A#	4e	4cc#
I	4GG	8BB	4B	8d#	2dd#
.	.	8C#	.	8e#	.
V/VI	4BB	4D#	4A#	4f##	.
=11	=11	=11	=11	=11	=11
vi;	2EE;	2GG#;	2G#;	2g#;	2b;
vi	4EE	4G#	4B	4g#	8dd#
.	.	.	.	.	8ee
viio7/II	4GG#	4D#	4B#	4a	4ff#
=12	=12	=12	=12	=12	=12
iib	4AA	4E	4c#	8g#	4ee
.	.	.	.	8a#y	.
viiD7/V	4CC#	4E#	4G#	4b	4dd#
V	4DD	8F#	4A#	8a#	4cc#
.	.	8E	.	8g#	.
Ib	4GG	8D#	4B	4f#	4dd#
.	.	8BB	.	.	.
=13	=13	=13	=13	=13	=13
V	2DD	2F#	4B	4.f#	2cc#
.	.	.	4A#	.	.
.	.	.	.	8e	.
I;	2GG;	2BB;	2F#;	2d#;	2b;
==	==	==	==	==	==
*-	*-	*-	*-	*-	*-
!!chor2scor: -l 2 -s 0.6 -o %b.pmx
!!!ONB: In the cantata, the key of the chorale is B-flat
!!!YEC: Copyright 2001 by Craig Stuart Sapp
!!!license: GNU General Public License (http://www.gnu.org/copyleft/gpl.html)
!!!SMA: J.S. Bach Chorale Harmonizations, edited by Ludwig Erk, C.F. Peters
!!!PDT: 1850, 1865
